app/dist/common/images/parkmead-plc-the.svg

<svg fill="none" height="18" viewBox="0 0 18 18" width="18" xmlns="http://www.w3.org/2000/svg"><path d="m0 0h18v18h-18z" fill="#f0f3fa"/><g clip-rule="evenodd" fill="#405a67" fill-rule="evenodd"><path d="m5 5h-1v5 3h1v-3h1.72658c1.25039 0 2.27342-1.12499 2.27342-2.5s-1.02303-2.5-2.27342-2.5zm0 4h1.63594c.75025 0 1.36406-.67498 1.36406-1.5s-.61381-1.5-1.36406-1.5h-1.63594z"/><path d="m11 9h3v1h-3z"/><path d="m14 9h-1v3h1z"/><path d="m13.9999 5.6987c-.7845-.43871-1.638-.6987-2.3747-.6987-2.00214 0-3.6252 1.79087-3.6252 4 0 2.2091 1.62306 4 3.6252 4 .7367 0 1.5902-.2249 2.3747-.6193v-1.305c-.663.5748-1.5512.9243-2.3316.9243-1.4736 0-2.6683-1.3432-2.6683-3 0-1.65685 1.1947-3 2.6683-3 .7804 0 1.6686.4039 2.3316 1.02999z"/></g></svg>

<!-- by TradingView --><svg width="18" height="18" viewBox="0 0 18 18" fill="none" xmlns="http://www.w3.org/2000/svg">
<rect width="18" height="18" fill="#F0F3FA"/>
<path fill-rule="evenodd" clip-rule="evenodd" d="M5 5H4V10V13H5V10H6.72658C7.97697 10 9 8.87501 9 7.5C9 6.12499 7.97697 5 6.72658 5H5ZM5 9H6.63594C7.38619 9 8 8.32502 8 7.5C8 6.67498 7.38619 6 6.63594 6H5V9Z" fill="#405A67"/>
<path fill-rule="evenodd" clip-rule="evenodd" d="M11 9H14V10H11V9Z" fill="#405A67"/>
<path fill-rule="evenodd" clip-rule="evenodd" d="M14 9H13V12H14V9Z" fill="#405A67"/>
<path fill-rule="evenodd" clip-rule="evenodd" d="M13.9999 5.6987C13.2154 5.25999 12.3619 5 11.6252 5C9.62306 5 8 6.79087 8 9C8 11.2091 9.62306 13 11.6252 13C12.3619 13 13.2154 12.7751 13.9999 12.3807V11.0757C13.3369 11.6505 12.4487 12 11.6683 12C10.1947 12 9 10.6568 9 9C9 7.34315 10.1947 6 11.6683 6C12.4487 6 13.3369 6.4039 13.9999 7.02999V5.6987Z" fill="#405A67"/>
</svg>
